X:58
T:Campbells Are Coming
S:American Veteran Fifer #58
C:To W.D. Stark, Fifer, Sparta Ill Co.B.19th Wis.
M:6/8
L:1/8
Q:1/8=300
K:G 
%%MIDI program 72
%%MIDI transpose 8
%%MIDI ratio 3 1
G | Bde dBG | B2 B B2 A | Bde dBG | A2 A A2 G |
Bde dBG | BcB gab | geg dBG | B2 B B2 :|
|: d | g2 g gab | d2 d d2 B/d/ | g2 g g>ab | e2 e e2 d  |
d>ef g>fe | d>ef gab | geg dBG | [1B2 B B2 :| [2 ABA G2z |


